X:192
T:The Chinee Bumboatman
M:3/4
L:1/4
Q:1/4=3D100
K:Db
B|\
BBB|Bcd|AAF|DEF|GGE|FFE|EE>B|
BBB|Bcd|A2F|D2F|G2E|F2D|EE>E|
E2F|GGA|B2B|e2B/B/|=3DB2B|A2B|B3|z2B|
eee|d2B|=3DB2B|B2E/E/|GGE|FFD|EBB|
BBB|B>=3DBd|B>=3DBd|A2F|D3|
E/E/E/E/F/D/|E2B|BBB|Bcd|A2F|D3|
M:4/4
Q:1/4=3D100
G/G/G/E/ F/F/D|E>B B||
